kora-light/actions/scalable/transform-shear-down.svg

<svg xmlns="http://www.w3.org/2000/svg" style="fill-rule:evenodd;clip-rule:evenodd;stroke-linejoin:round;stroke-miterlimit:2" width="100%" height="100%" version="1.1" viewBox="0 0 16 16" xml:space="preserve">
 <defs>
  <style id="current-color-scheme" type="text/css">
   .ColorScheme-Text { color:#444444; } .ColorScheme-Highlight { color:#4285f4; } .ColorScheme-NeutralText { color:#ff9800; } .ColorScheme-PositiveText { color:#4caf50; } .ColorScheme-NegativeText { color:#f44336; }
  </style>
 </defs>
 <path style="fill:currentColor;fill-opacity:0.3" class="ColorScheme-Text" d="M1,5l0,10l9,0l0,-2.865l-5,1.111l0,-8.246l-4,0Z"/>
 <path style="fill:currentColor;" class="ColorScheme-Text" d="M15,1l-9,2l0,9l9,-2l0,-9Z"/>
</svg>

<svg xmlns="http://www.w3.org/2000/svg" width="16" height="16" viewBox="0 0 16 16">
 <defs>
  <style id="current-color-scheme" type="text/css">
   .ColorScheme-Text { color:#444444; } .ColorScheme-Highlight { color:#4285f4; }
  </style>
 </defs>
 <path style="fill:currentColor" class="ColorScheme-Text" d="M 15 1 L 6 3 L 6 12 L 15 10 L 15 1 z M 1 5 L 1 15 L 10 15 L 10 12.134766 L 5 13.246094 L 5 5 L 1 5 z"/>
</svg>
